X:1
%%MIDI gchordoff
T:A Division on a Ground by Mr. Finger
C: Finger
O: The Division Flute, 1706
M:3/4
L:1/8
K:Gmin
V:1 name="Flute"
%1
|:b2 d'2 bg | ^f2 d2 a2 | g2 gbag | ^f4 b2 | c'4 a2 | b4 g2 | g3 a ^f2 |1 g2 gabc' :|2 g2 bc'ba :|
%2
b2 g2 b2 | a4 a2 | g2 "(1)"d'2 g2 | ^f2 a2 b2 | c'd'c'b a2 | bc'ba g2 | abag ^f2 | gdgabc' | d'bgabg | 
N:Original is d'3, so either this or d'3 g would be reasonable
%3
^fadad'^f | gabgbc' | d'd^fabd' | gbc'bac' | fabagb | c'd'c'b a2 | b2 gabc' | b2 ga b2 | 
%4
a2 ag ^f2 | g2 c'bag | ^f4 b2 | b2 c'b a2 | a2 ba g2 | g2 ag ^f2 | g2 G2 ga | b2 d2 bc' | 
%5
b2 d2 ab  | g2 b2 c'2 | d'2 ^f2 b2 | c'4 z2 | b4 z2 | a3 g ^f2 | gd/c/ Bd gd | bb/a/ gdbg
%6
^fd'/c'/ d'a^fa | gb/a/ gabc' | d'a/g/ ^fg/a/ bc'/d'/ | ga/b/ c'b/c'/ ab/c'/ | fg/a/ ba/b/ ga/b/ | 
%7
ag/a/ ^fg/a/ g>^f | g/G/A/B/ c/d/^e/^f/ g/^f/g/a/ | b/a/b/c'/ d'/c'/b/a/ b/a/b/c'/ | a/g/^f/^e/ 
%8
 d/^e/^f/g/  a/b/c'/a/ | g/^f/g/a/ b/a/b/g/ c'/b/a/g/ | ^f/c'/b/c'/ d/a/b/c'/ b/g/a/b/ | c'/b/c'/d'/ e'/d'/c'/b/ a/f/g/a/ |
%9
b/a/b/c'/ d'/c'/b/a/ g/a/b/g/ | a/g/a/b/ c'/b/a/g/ ^f/a/g/^f/ | gf/e/ d/c/B/A/ G2 | B2 d2 g2 |
%10
a4 d'2 | d'3 e' c'2 | d'a ^fd g2 | (c'g)(gc') a2 | (bf)(fb) g2 | (ac')(c'a) ^fa |
%11
(bd')(d'b) g2 | b/d'/d'/d'/ g/d'/d'/d'/ b/d'/d'/d'/ | ^f/d'/d'/d'/ a/d'/d'/d'/ ^f/d'/d'/d'/ | b/d'/d'/d'/ 
%12
 g/d'/d'/d'/ g/c'/c'/c'/ | d/a/a/a/ ^f/a/a/a/ b/d'/d'/d'/ | e'/g/g/g/ c'/e'/e'/e'/a/c'/c'/c'/ |
%13
d'/f/f/f/ b/d'/d'/d'/ c'/g/g/g/ | a/g/a/b/ c'/b/a/g/ ^f/a/g/^f/ | g6 |]
V:2 name="Ground Bass"
K:Gmin bass
%%MIDI transpose -24
L:1/4
|:G BG | d ^f d | e E e | ddg | ecf | d B e | c A d |1 G3 :|2 G3 |]
G BG | d ^f d | e E e | ddg | ecf | d B e | c A d | G3 |]
G BG | d ^f d | e E e | ddg | ecf | d B e | c A d | G3 |]
G BG | d ^f d | e E e | ddg | ecf | d B e | c A d | G3 |]
G BG | d ^f d | e E e | ddg | ecf | d B e | c A d | G3 |]
G BG | d ^f d | e E e | ddg | ecf | d B e | c A d | G3 |]
G BG | d ^f d | e E e | ddg | ecf | d B e | c A d | G3 |]
G BG | d ^f d | e E e | ddg | ecf | d B e | c A d | G3 |]
G BG | d ^f d | e E e | ddg | ecf | d B e | c A d | G3 |]
